X: 41380
T: Tvihuga
R: waltz
M: 3/4
K: Cdorian
K: BbMajor
|:F/ B>c|d2- d>e (3dcB|c2- c>c B>A|G>B B>G B>d|c>A F>A B>c|
d2- d>e (3dcB|c2- c>c B>A|G>B B2 A>c|B2- B3/2:|
|:f/ b>a|g2- g>a g>f|d2- d>d (3dcB|c2 c>B c>d|c>B G>b b>a|
g2- g>a (3agf|d2- d>d (3dcB|c2 c>B c>d|c>B G2 G>F|
E>F G>A B>c|d>e f>d c>d|B2- B>c B>A|B2- B3/2:|

